X: 17015
T: Health To The Ladies
R: jig
M: 6/8
K: Dmajor
a|:ecA BAF|AFE EFA|Bdc BAB|cBB Bcd|
ecA BAF|AFE EFA|Bdc BAB|1 cAA A2a|2 cAA A3||
|:Bce ed2|fce ccB|AcB cdA|aec AB2|
Ace ed2|fce ccB|ABd cBA|BcA AA2:|

